src/assets/modal/small.svg

<svg xmlns="http://www.w3.org/2000/svg" width="320" height="330" fill="none" xmlns:v="https://vecta.io/nano"><path d="M0 0h308l12 12v135l-5 9v48l5 9v117H12L0 318V168l5-9v-58l-5-9V0z" fill="#f5f1ee"/><path d="M6 17V5h12L6 17z" fill="url(#A)"/><path d="M315 313v12h-12l12-12z" fill="url(#B)"/><path d="M160 15l9-10h-18l9 10z" fill="#ab750f"/><defs><linearGradient id="A" x1="18.561" y1="11" x2="5.78" y2="11" gradientUnits="userSpaceOnUse"><stop stop-color="#ab750f"/><stop offset=".516" stop-color="#d8a956"/><stop offset="1" stop-color="#ab750f"/></linearGradient><linearGradient id="B" x1="302.439" y1="319" x2="315.219" y2="319" gradientUnits="userSpaceOnUse"><stop stop-color="#ab750f"/><stop offset=".516" stop-color="#d8a956"/><stop offset="1" stop-color="#ab750f"/></linearGradient></defs></svg>

<svg width="320" height="330" viewBox="0 0 320 330" fill="none" xmlns="http://www.w3.org/2000/svg">
<g id="small">
<path id="Rectangle 308" d="M0 0H308L320 12V147L315 156V204L320 213V330H12L0 318V168L5 159V101L0 92V0Z" fill="#F5F1EE"/>
<path id="Polygon 49" d="M6 17L6.00002 5.00011H18L6 17Z" fill="url(#paint0_linear_2244_29448)"/>
<path id="Polygon 48" d="M315 313L315 325H303L315 313Z" fill="url(#paint1_linear_2244_29448)"/>
<path id="Polygon 47" d="M160 15L169 5H151L160 15Z" fill="#AB750F"/>
</g>
<defs>
<linearGradient id="paint0_linear_2244_29448" x1="18.561" y1="10.9999" x2="5.78049" y2="10.9999" gradientUnits="userSpaceOnUse">
<stop stop-color="#AB750F"/>
<stop offset="0.516" stop-color="#D8A956"/>
<stop offset="1" stop-color="#AB750F"/>
</linearGradient>
<linearGradient id="paint1_linear_2244_29448" x1="302.439" y1="319" x2="315.219" y2="319" gradientUnits="userSpaceOnUse">
<stop stop-color="#AB750F"/>
<stop offset="0.516" stop-color="#D8A956"/>
<stop offset="1" stop-color="#AB750F"/>
</linearGradient>
</defs>
</svg>
